svg/publishing/profile.svg

<svg width="16" height="16" viewBox="0 0 16 16" fill="none" xmlns="http://www.w3.org/2000/svg">
<path d="M8.00977 0.739997C6.32971 0.737733 4.70087 1.31823 3.40091 2.38252C2.10095 3.44681 1.21035 4.92902 0.880928 6.57647C0.551507 8.22393 0.803659 9.93464 1.5944 11.417C2.38514 12.8993 3.66551 14.0615 5.21726 14.7055C6.76901 15.3495 8.49607 15.4353 10.104 14.9484C11.712 14.4615 13.1013 13.432 14.0352 12.0354C14.969 10.6387 15.3896 8.96147 15.2251 7.28947C15.0607 5.61747 14.3215 4.05425 13.1335 2.86629C12.461 2.19267 11.6623 1.65817 10.7832 1.29333C9.90404 0.928491 8.96162 0.740465 8.00977 0.739997V0.739997ZM4.20926 13.0727C4.39561 12.8063 4.59592 12.5499 4.80934 12.3046C5.34984 12.0065 5.95947 11.8564 6.57658 11.8695C6.848 11.8674 7.10775 11.7588 7.29987 11.5671C7.49199 11.3753 7.6011 11.1158 7.60372 10.8444V10.2903C7.60372 9.81625 7.17266 9.56821 6.79261 9.34918C6.6194 9.21335 6.46116 9.05946 6.32054 8.89012L6.22053 8.7801C6.07011 8.62042 5.96634 8.42256 5.92049 8.20803C5.76732 7.48454 5.68889 6.74724 5.68646 6.00772C5.68141 5.7791 5.72317 5.55186 5.80916 5.33996C5.89516 5.12807 6.02358 4.936 6.18653 4.77555C6.67465 4.31583 7.31636 4.05415 7.98677 4.04145C8.65718 4.05415 9.29889 4.31583 9.78702 4.77555C9.95096 4.93578 10.08 5.12816 10.1661 5.34063C10.2522 5.55296 10.294 5.78064 10.2891 6.00972C10.2868 6.7493 10.208 7.48666 10.0541 8.21003C10.0077 8.4241 9.90402 8.62152 9.75401 8.7811L9.634 8.91212C9.50157 9.07323 9.352 9.21944 9.18794 9.34818C8.78788 9.57821 8.37883 9.87525 8.37883 10.3343V10.8904C8.38616 11.1551 8.49721 11.4063 8.68805 11.5898C8.87888 11.7733 9.13421 11.8745 9.39896 11.8715C10.0137 11.8594 10.6209 12.0095 11.1592 12.3066C11.3792 12.5606 11.5862 12.8256 11.7793 13.1007C10.6843 13.9156 9.35453 14.3533 7.98961 14.3483C6.62468 14.3432 5.29821 13.8956 4.20926 13.0727V13.0727ZM12.4594 12.5226C12.2591 12.2397 12.0445 11.9673 11.8163 11.7065C11.2092 11.0364 9.49198 10.9814 9.41597 10.9794C9.36696 10.9794 9.27495 10.9794 9.26295 10.8884L9.25294 10.3993C9.35752 10.2824 9.48523 10.1884 9.628 10.1233C9.87778 9.95359 10.1012 9.74802 10.2911 9.5132L10.4101 9.39019C10.6688 9.11407 10.8484 8.77346 10.9302 8.40405C11.0974 7.61956 11.1829 6.81984 11.1852 6.01772C11.191 5.671 11.1267 5.32668 10.9961 5.00545C10.8655 4.68422 10.6713 4.39272 10.4251 4.14847C9.76822 3.52046 8.89749 3.16516 7.98877 3.15433C7.08018 3.16672 6.20988 3.5222 5.55244 4.14947C5.30629 4.39372 5.11207 4.68522 4.98145 5.00645C4.85082 5.32768 4.7865 5.672 4.79234 6.01872C4.79463 6.82084 4.88009 7.62056 5.04737 8.40505C5.12986 8.77369 5.30902 9.11372 5.56644 9.39019L5.66646 9.4972C5.86436 9.7379 6.09535 9.94937 6.35255 10.1253C6.47984 10.1953 6.60245 10.2734 6.7196 10.3593V10.8364C6.71992 10.8566 6.71618 10.8767 6.7086 10.8954C6.70129 10.9139 6.69003 10.9307 6.67559 10.9444C6.66112 10.9584 6.64369 10.969 6.62459 10.9754C6.6057 10.9822 6.58552 10.9846 6.56558 10.9824C6.49257 10.9824 4.76533 11.0394 4.16025 11.7095C3.94021 11.9613 3.73293 12.224 3.53917 12.4966C2.64441 11.6079 2.03414 10.4733 1.78595 9.23686C1.53776 8.00045 1.66287 6.71815 2.14536 5.55303C2.62786 4.3879 3.44594 3.39258 4.49559 2.69363C5.54525 1.99467 6.77905 1.62365 8.04012 1.62774C9.30119 1.63184 10.5326 2.01086 11.5776 2.71662C12.6227 3.42239 13.4343 4.423 13.9093 5.59123C14.3842 6.75947 14.5009 8.04254 14.2447 9.27732C13.9885 10.5121 13.3709 11.6428 12.4704 12.5256L12.4594 12.5226Z" fill="black"/>
</svg>

<svg id="Layer_1" data-name="Layer 1" xmlns="http://www.w3.org/2000/svg" viewBox="0 0 16 16"><title>profile</title><path d="M8,.751a7.259,7.259,0,1,0,5.123,2.126A7.244,7.244,0,0,0,8,.751ZM4.2,13.082a9.228,9.228,0,0,1,.6-.768,3.505,3.505,0,0,1,1.767-.435,1.035,1.035,0,0,0,1.027-1.025V10.3c0-.474-.431-.722-.811-.941A3.1,3.1,0,0,1,6.311,8.9l-.1-.11a1.2,1.2,0,0,1-.3-.572,10.793,10.793,0,0,1-.234-2.2,1.677,1.677,0,0,1,.5-1.232,2.7,2.7,0,0,1,1.8-.734,2.7,2.7,0,0,1,1.8.734,1.663,1.663,0,0,1,.379.565,1.683,1.683,0,0,1,.123.669,10.724,10.724,0,0,1-.235,2.2,1.206,1.206,0,0,1-.3.571l-.12.131a2.874,2.874,0,0,1-.446.436c-.4.23-.809.527-.809.986V10.9a1.009,1.009,0,0,0,1.02.981,3.5,3.5,0,0,1,1.76.435,9.9,9.9,0,0,1,.62.794A6.308,6.308,0,0,1,4.2,13.082Zm8.249-.55a10.11,10.11,0,0,0-.643-.816c-.607-.67-2.324-.725-2.4-.727-.049,0-.141,0-.153-.091l-.01-.489a1.134,1.134,0,0,1,.375-.276,3.075,3.075,0,0,0,.663-.61L10.4,9.4a2.109,2.109,0,0,0,.52-.986,11.6,11.6,0,0,0,.255-2.386,2.572,2.572,0,0,0-.76-1.869,3.587,3.587,0,0,0-2.436-.994,3.6,3.6,0,0,0-2.436.995,2.572,2.572,0,0,0-.76,1.869,11.6,11.6,0,0,0,.255,2.386,2.127,2.127,0,0,0,.519.985l.1.107a3.3,3.3,0,0,0,.686.628,3.351,3.351,0,0,1,.367.234v.477a.151.151,0,0,1-.011.059.137.137,0,0,1-.033.049.135.135,0,0,1-.051.031.132.132,0,0,1-.059.007c-.073,0-1.8.057-2.405.727a10.017,10.017,0,0,0-.621.787,6.357,6.357,0,1,1,8.93.029Z"/></svg>
